icon/ir/small-shop.svg

<svg stroke-width="1.5" viewBox="0 0 24 24" fill="none" xmlns="http://www.w3.org/2000/svg" height="1em" width="1em">
  <path d="M21.8183 9.36418L20.1243 3.43517C20.0507 3.17759 19.8153 3 19.5474 3H15.5L15.9753 8.70377C15.9909 8.89043 16.0923 9.05904 16.2532 9.15495C16.6425 9.38698 17.4052 9.81699 18 10C19.0158 10.3125 20.5008 10.1998 21.3465 10.0958C21.6982 10.0526 21.9157 9.7049 21.8183 9.36418Z" stroke="currentColor" stroke-width="1.5"/>
  <path d="M14 10C14.5675 9.82538 15.2879 9.42589 15.6909 9.18807C15.8828 9.07486 15.9884 8.86103 15.9699 8.63904L15.5 3H8.5L8.03008 8.63904C8.01158 8.86103 8.11723 9.07486 8.30906 9.18807C8.71207 9.42589 9.4325 9.82538 10 10C11.493 10.4594 12.507 10.4594 14 10Z" stroke="currentColor" stroke-width="1.5"/>
  <path d="M3.87567 3.43517L2.18166 9.36418C2.08431 9.7049 2.3018 10.0526 2.6535 10.0958C3.49916 10.1998 4.98424 10.3125 6 10C6.59477 9.81699 7.35751 9.38698 7.74678 9.15495C7.90767 9.05904 8.00913 8.89043 8.02469 8.70377L8.5 3H4.45258C4.18469 3 3.94926 3.17759 3.87567 3.43517Z" stroke="currentColor" stroke-width="1.5"/>
  <path d="M3 10V19C3 20.1046 3.89543 21 5 21H19C20.1046 21 21 20.1046 21 19V10" stroke="currentColor" stroke-width="1.5"/>
</svg>

<svg width="24" height="24" stroke-width="1.5" fill="none" xmlns="http://www.w3.org/2000/svg"><path d="m21.818 9.364-1.694-5.929A.6.6 0 0 0 19.547 3H15.5l.475 5.704a.578.578 0 0 0 .278.45c.39.233 1.152.663 1.747.846 1.016.313 2.5.2 3.346.096a.57.57 0 0 0 .472-.732Z" stroke="currentColor"/><path d="M14 10c.568-.175 1.288-.574 1.69-.812a.578.578 0 0 0 .28-.549L15.5 3h-7l-.47 5.639a.578.578 0 0 0 .28.55c.402.237 1.122.636 1.69.811 1.493.46 2.507.46 4 0Z" stroke="currentColor"/><path d="m3.876 3.435-1.694 5.93a.57.57 0 0 0 .472.73c.845.105 2.33.217 3.346-.095.595-.183 1.358-.613 1.747-.845a.578.578 0 0 0 .278-.451L8.5 3H4.453a.6.6 0 0 0-.577.435Z" stroke="currentColor"/><path d="M3 10v9a2 2 0 0 0 2 2h14a2 2 0 0 0 2-2v-9" stroke="currentColor"/></svg>
